X:1
T:Title
%%score ( 1 2 ) { ( 3 5 ) | 4 }
L:1/8
Q:1/4=105
M:4/4
K:Eb
V:1 treble nm="Grand Piano, Soprano"
V:2 treble 
V:3 bass nm="Choir Pad, Tell Me the Story of Jesus"
V:5 bass 
V:4 bass 
V:1
 [B,E]2 [B,E]>[DF] [EG]2 [EG][EG] | [DF]4 [B,E]2 z G | [Ec]2 GG [Fd]3 G | [Ee]4 z2 [Ge]2 | %4
w: By~Nellie~Whipple~Fawcett * * * * *||||
[M:6/4][Q:1/4=130] [Ge]2 [Fd]2 [Ec]2 [Ec]2 [Fd]2 [Ec]2 | [DB]6 .[DF]4 [Fd]2 | %6
w: ||
 [Fd]2 [Ec]2 [DB]2 [Ec]2 [EG]2 [E=A]2 | B12 |[M:4/4][Q:1/4=105] [B,E]2 [B,E]>[DF] [EG]2 [EG][EG] | %9
w: |||
 [DF]4 [B,E]2 z [EG]/[EG]/ | [EG]2 [EG][EG] [DG]2 [EG][FG] | [EG]6[Q:1/4=130] [EF]2 | %12
w: |||
[M:6/4] [EF]4 [EF]2 [EF]2 [EG]2 [E=A]2 | [DB]4 [DF]2 .[DF]4 [DB][DB] | %14
w: ||
 [C=A]2 [EG]2 [DF]2 [CE]2 [=A,C]2 [A,F]2 | B,6 [DB]6 | [EB]3 [FA] [EG]2 [EG]2 [FA]2 [GB]2 | %17
w: |||
 [Ac]6 [Ac]6 | [=Ac]3 [GB] [FA]2 [FA]2 [GB]2 [Ac]2 | [Bd]6 [Fd]6 | %20
w: |||
 [Ee]2 [Bd]2 [Ac]2 [GB]2 [FA]2 [EG]2 | F6 [_Gc]4 [Gc]2 | [GB]2 E2 [EA]2 [EG]2 [B,E]2 [B,F]2 | %23
w: |||
 E12 |] %24
w: |
V:2
 x8 | x8 | x8 | x8 |[M:6/4] x12 | x12 | x12 | D6 F6 |[M:4/4] x8 | x8 | x8 | x8 |[M:6/4] x12 | x12 | %14
 x12 | x12 | x12 | x12 | x12 | x12 | x12 | x12 | x12 | B,2 C2 =B,2 _B,6 |] %24
V:3
 G,2 G,>A, B,2 B,B, | A,4 G,2 z G, | C2 G,G, =B,3 G, | C4 z4 |[M:6/4] z4 F,2 F,4 F,2 | F,6 .F,6 | %6
 z4 F,2 F,4 F,2 | F,6 A,6 |[M:4/4] G,2 G,>A, B,2 B,B, | A,4 G,2 z G,/G,/ | %10
 G,2[K:treble] CC =B,2 CD | C6[K:bass] =A,2 |[M:6/4] =A,4 A,2 A,2 B,2 C2 | D4 B,2 .B,4 F,F, | %14
 F,2 F,2 F,2 F,2 F,2 F,2 | D,6 A,6 | G,3 B, B,2 B,2 B,2[K:treble] E2 | E6 E6 | F3 C C2 C2 =E2 _E2 | %19
 D6 B,6 | B,2 E2 E2 E2 B,2 B,2 | C6 E4 E2 | E2[K:bass] B,2 C2 B,2 G,2 A,2 | G,2 A,2 A,2 G,6 |] %24
V:4
 E,2 E,>E, E,2 E,E, | B,,4 E,2 z2 | C,2 z2 G,4 | C,4 z4 |[M:6/4] z12 | B,,6 .B,,6 | z12 | B,,12 | %8
[M:4/4] E,2 E,>E, E,2 E,E, | B,,4 E,2 z C,/C,/ | C,3 C, G,2 G,G, | C,6 F,2 | %12
[M:6/4] F,4 F,2 F,2 F,2 F,2 | F,6 .F,6 | F,,2 F,,2 F,,2 F,,2 F,,2 F,,2 | B,,12 | %16
 E,3 E, E,2 E,2 E,2 E,2 | A,6 A,6 | F,3 F, F,2 F,2 F,2 F,2 | B,6 A,6 | G,2 E,2 E,2 E,2 F,2 G,2 | %21
 A,6 =A,4 A,2 | B,2 G,2 A,,2 B,,2 B,,2 B,,2 | E,12 |] %24
V:5
 x8 | x8 | x8 | x8 |[M:6/4] F,,12 | x12 | F,,12 | x12 |[M:4/4] x8 | x8 | x2[K:treble] x6 | %11
 x6[K:bass] x2 |[M:6/4] x12 | x12 | x12 | x12 | x10[K:treble] x2 | x12 | x12 | x12 | x12 | x12 | %22
 x2[K:bass] x10 | x12 |] %24

